PortableApps/LibreOfficePortable/App/libreoffice/help/media/icon-themes/cmd/sc_hiderow.svg

<svg viewBox="0 0 16 16" xmlns="http://www.w3.org/2000/svg">/&amp;amp;gt;<path d="m1 2v12h14v-12z" fill="#fff"/><path d="m0 1v4 9.5c-.00038442.276301.22369855.500384.5.5h15c.276301.000384.500384-.223699.5-.5v-9.5-4zm1 1h4v3 1h1v-1-3h3.9999995v3 1h1.0000005v-1-3h4v3h.002v9.001953h-14.00395312v-9.001953h.001953zm4 9v3h1v-3zm4.9999995 0v3h1.0000005v-3z" fill="#808080"/><path d="m0 5v6h16v-6zm1 1h4v4h-4zm5 0h3.9999995v4h-3.9999995zm5 0h4v4h-4z" fill="#eac282"/><g fill-rule="evenodd"><path d="m0 1v14l16-14zm1 1h12l-12 10.826172z" fill="#4d82b8"/><path d="m1 1.999609 12 .000391-12 10.826172z" fill="#fff"/></g></svg>

<?xml version="1.0" encoding="UTF-8" standalone="no"?>
<svg xmlns="http://www.w3.org/2000/svg" xmlns:sodipodi="http://sodipodi.sourceforge.net/DTD/sodipodi-0.dtd" xmlns:inkscape="http://www.inkscape.org/namespaces/inkscape" viewBox="0 0 16 16" version="1.1">
 <metadata id="metadata12">
  <rdf:RDF>
   <cc:Work>
    <dc:format>image/svg+xml</dc:format>
    <dc:type rdf:resource="http://purl.org/dc/dcmitype/StillImage"/>
   </cc:Work>
  </rdf:RDF>
 </metadata>
 <defs id="defs10"/>
 <sodipodi:namedview pagecolor="#ffffff" bordercolor="#666666" borderopacity="1" objecttolerance="10" gridtolerance="10" guidetolerance="10" inkscape:pageopacity="0" inkscape:pageshadow="2" inkscape:window-width="2560" inkscape:window-height="1319" id="namedview8" showgrid="true" inkscape:zoom="41.7193" inkscape:cx="-0.1524274" inkscape:cy="7.50479" inkscape:window-x="0" inkscape:window-y="30" inkscape:window-maximized="1" inkscape:current-layer="svg6">
  <inkscape:grid type="xygrid" id="grid822"/>
 </sodipodi:namedview>






     /&amp;gt;
  <path inkscape:connector-curvature="0" d="M 1,2 V 14 H 15 V 2 Z" id="rect840" opacity="1" stroke-dasharray="none" stroke-opacity="1" fill="#ffffff" stroke="none" stroke-linejoin="round" fill-opacity="1" stroke-linecap="round" stroke-width="2" stroke-miterlimit="4"/> <path inkscape:connector-curvature="0" d="m 0,1 v 4 9.5 c -3.8442e-4,0.276301 0.22369855,0.500384 0.5,0.5 h 15 c 0.276301,3.84e-4 0.500384,-0.223699 0.5,-0.5 V 5 1 Z M 1,2 H 5 V 5 6 H 6 V 5 2 H 9.9999995 V 5 6 H 11 V 5 2 h 4 v 3 h 0.002 v 9.001953 H 0.99804688 V 5 h 0.001953 z m 4,9 v 3 h 1 v -3 z m 4.9999995,0 v 3 H 11 v -3 z" id="path4" fill="#808080" fill-opacity="1"/> <path d="m 0,5 v 6 H 16 V 5 Z m 1,1 h 4 v 4 H 1 Z m 5,0 h 3.9999995 v 4 H 6 Z m 5,0 h 4 v 4 h -4 z" id="rect824" inkscape:connector-curvature="0" opacity="1" stroke-dasharray="none" stroke-opacity="1" fill="#eac282" stroke="none" stroke-linejoin="round" fill-opacity="1" stroke-linecap="round" stroke-width="2" stroke-miterlimit="4"/> <path inkscape:connector-curvature="0" d="M 0,1 V 15 L 16,1 Z M 1,2 H 13 L 1,12.826172 Z" id="path6" sodipodi:nodetypes="cccccccc" fill="#4d82b8" fill-rule="evenodd"/> <path inkscape:connector-curvature="0" d="M 1,1.999609 13,2 1,12.826172 Z" id="path8" sodipodi:nodetypes="cccc" fill="#ffffff" fill-rule="evenodd"/></svg>
